packages/ui-icons/svg/Solid/add-media.svg

<svg viewBox="0 0 1920 1920" xmlns="http://www.w3.org/2000/svg">
    <path d="M960 293.333v160H186.667C171.939 453.333 160 465.272 160 480v1253.33c0 14.73 11.939 26.67 26.667 26.67H1440c14.73 0 26.67-11.94 26.67-26.67V960h160v773.33c0 103.1-83.58 186.67-186.67 186.67H186.667C83.573 1920 0 1836.43 0 1733.33V480c0-103.093 83.573-186.667 186.667-186.667H960ZM586.667 800 1120 1120l-533.333 320V800ZM1626.67 0v293.333H1920v160h-293.33v293.334h-160V453.333h-293.34v-160h293.34V0h160Z" fill-rule="evenodd"/>
</svg>

<svg viewBox="0 0 1920 1920" version="1.1" xmlns="http://www.w3.org/2000/svg">
    <path d="M960,293.333 L960,453.333 L186.667,453.333 C171.939,453.333 160,465.272 160,480 L160,1733.33 C160,1748.06 171.939,1760 186.667,1760 L1440,1760 C1454.73,1760 1466.67,1748.06 1466.67,1733.33 L1466.67,960 L1626.67,960 L1626.67,1733.33 C1626.67,1836.43 1543.09,1920 1440,1920 L186.667,1920 C83.5735,1920 0,1836.43 0,1733.33 L0,480 C0,376.907 83.5735,293.333 186.667,293.333 L960,293.333 Z M586.667,800 L1120,1120 L586.667,1440 L586.667,800 Z M1626.67,0 L1626.67,293.333 L1920,293.333 L1920,453.333 L1626.67,453.333 L1626.67,746.667 L1466.67,746.667 L1466.67,453.333 L1173.33,453.333 L1173.33,293.333 L1466.67,293.333 L1466.67,0 L1626.67,0 Z" stroke="none" stroke-width="1" fill-rule="evenodd"/>
</svg>
